!!!COM:	Bach, Johann Sebastian
!!!CDT:	1685/02/21/-1750/07/28/
!!!OTL@@DE:	Ich dank dir, lieber Herre
!!!SCT:	BWV 347
!!!PC#:	2
!!!AGN:	chorale
**kern	**kern	**kern	**kern
*ICvox	*ICvox	*ICvox	*ICvox
*Ibass	*Itenor	*Ialto	*Isoprn
*I"Bass	*I"Tenor	*I"Alto	*I"Soprano
*>[A,A,B]	*>[A,A,B]	*>[A,A,B]	*>[A,A,B]
*>norep[A,B]	*>norep[A,B]	*>norep[A,B]	*>norep[A,B]
*>A	*>A	*>A	*>A
*	*oclefC4	*oclefC3	*oclefC1
*clefF4	*clefGv2	*clefG2	*clefG2
*k[f#c#g#]	*k[f#c#g#]	*k[f#c#g#]	*k[f#c#g#]
*A:	*A:	*A:	*A:
*M4/4	*M4/4	*M4/4	*M4/4
*met(c)	*met(c)	*met(c)	*met(c)
*MM100	*MM100	*MM100	*MM100
8AL	4c#	4e	4a
8G#J	.	.	.
=1	=1	=1	=1
4F#	4c#	4f#	4a
4C#	8c#L	4e	4a
.	8BJ	.	.
4D	8AL	4f#	4a
.	8G#J	.	.
4D#	4F#	4f#	4b
=2	=2	=2	=2
4E	4.B	4e	4g
4BB	.	4d#	4f#
.	8A	.	.
4EE;	4G#X;	4B;	4e;
4E	4e	4g#	4b
=3	=3	=3	=3
4A	4e	4a	4cc#
4B	4d#	8g#L	4b
.	.	8f#J	.
4c#	2c#	[2e	4a
8BL	.	.	8g#L
8AJ	.	.	8f#J
=4	=4	=4	=4
4B	4.B	4e]	4g#
4BB	.	4d#	4f#
.	8A	.	.
4E;	4G#;	4B;	4e;
=:|!	=:|!	=:|!	=:|!
*>B	*>B	*>B	*>B
4C#	4G#	8cc#L	4ee
.	.	8bJ	.
=5	=5	=5	=5
8F#L	8AL	4a	4dd
8G#J	8BJ	.	.
4A	8c#L	4a	4cc#
.	8dJ	.	.
4E	4e	4g#	4b
8C#L	4e	8aL	4a
8AAJ	.	8gJ	.
=6	=6	=6	=6
4D	4d	8f#L	8aL
.	.	8g#XJ	8bJ
8C#L	4e	4a	4cc#
8DJ	.	.	.
4E;	4e;	4g#;	4b;
4C#	4e	4a#	4cc#
=7	=7	=7	=7
4BB	8f#	8bL	4dd
.	4B	8aJ	.
4C#	.	4g	4cc#
.	8A#	.	.
8DL	4B	8f#L	4b
8GJ	.	8eJ	.
4F#	4c#	4f#	4a#
=8	=8	=8	=8
2.BB;	2.d;	2.f#;	2.b;
4C#	4G#	8eL	4e
.	.	8dJ	.
=9	=9	=9	=9
4F#	4A	4c#	4a
8EL	8G#L	4d	4b
8DJ	8F#J	.	.
4C#	8EL	4e	4cc#
.	8eJ	.	.
4BB	4d	8f#L	4dd
.	.	8g#J	.
=10	=10	=10	=10
8AAL	8c#L	2a	4ee
8BB	8d	.	.
8C#	8e	.	8ddL
8DJ	8f#J	.	8cc#J
4E;	4g#;	4e;	4b;
4BB	4f#	4b	4dd
=11	=11	=11	=11
8F#L	8f#L	8aL	4cc#
8G#J	8eJ	8g#J	.
4A	8dL	4f#	4b
.	8c#J	.	.
8G#L	4B	4e	4.ee
8EJ	.	.	.
[4A	8c#L	8f#L	.
.	8dJ	8g#J	8dd
=12	=12	=12	=12
8AL]	4.e	2a	8cc#L
8G#J	.	.	8b
4F#	.	.	8a
.	8d	.	8bJ
8EL	8c#L	4a	4cc#
8DJ	8f#J	.	.
4E	8BL	4g#	4b
.	16eL	.	.
.	16dJJ	.	.
=13	=13	=13	=13
2.AA;	2.c#;	2.e;	2.a;
==	==	==	==
*-	*-	*-	*-
!!!YOR1: 371 vierstimmige Choralges&auml;nge von Johann Sebastian Bach, 
!!!YOR2: 4th ed. by Alfred D&ouml;rffel (Leipzig: Breitkopf und H&auml;rtel, 
!!!YOR2: c.1875). 178 pp. Plate "V.A.10".  reprint: J.S. Bach, 371 Four-Part 
!!!YOR4: Chorales (New York: Associated Music Publishers, Inc., c.1940).
!!!SMS: B&H, 4th ed, Alfred D&ouml;rffel, c.1875, plate V.A.10
!!!EED:  Craig Stuart Sapp
!!!EEV:  2009/05/22
